X:92
T:Cold Frosty Morning
C:
N:Transcribed by Vance Henry
R:bluegrass
L:1/8
Q:1/4=210
M:4/4
K:G
z4 z2 G,A, |: "Am"A,C EG A2 AB | cB cd e2 (3DEF | "G"GA BA G2 BA | GA Bc d2 G,A, | 
"Am"A,C EG A2 AB | cB cd e2 ed | cB Ac "G"BA GE |1 A3A A2 A,2 :|2 A3A A2 ^cB | 
|: "A"A^c e^g a2 z2 | ab ag ed ^cd | "G"ed ef gf gf | ed ^cd e2 EG | "Am"A2 AA "C"cB cA | 
"D"dc dA "E7"e2 ed | "Am"cB Ac "E7"BA GE |1 A3A z2 ^cB :|2 A3A z4 | 


